!!!COM: Music21
!!!OTL: Pasacalles
!!!OMV: pezas_pasacorredoiras_pasacalles-2_pasacalles-partitura.musicxml
**kern
*I"Bagpipes
*I'Bag
*clefG^2
*k[]
*M2/4
=1
!LO:TX:a:t=Allegretto
*MM120
!LO:TX:a:t=[quarter]=120
4r
16ccLL
16cc
16ee
16ggJJ
=||
8.cccTL
16ggJk
16eeLL
16cc
16ee
16ggJJ
=
8.cccTL
16ggJk
16eeLL
16cc
16ee
16ggJJ
=
16ffLL
16ee
16ff
16ddJJ
16ffLL
16ee
16ff
16aaJJ
=
16ggLL
16ff
16ee
16ddJJ
16ccLL
16cc
16ee
16ggJJ
=
8.cccTL
16ggJk
16eeLL
16cc
16ee
16ggJJ
!!linebreak:original
=
8.cccTL
16ggJk
16eeLL
16cc
16ee
16ggJJ
=
16ffLL
16ee
16ff
16eeJJ
16ffLL
16dd
16b
16ddJJ
=
4cc
16ccLL
16cc
16ee
16ggJJ
=||
8.cccTL
16ggJk
16eeLL
16cc
16ee
16ggJJ
=
8.cccTL
16ggJk
16eeLL
16cc
16ee
16ggJJ
=
16ffLL
16ee
16ff
16ddJJ
16ffLL
16ee
16ff
16aaJJ
!!linebreak:original
=
16ggLL
16ff
16ee
16ddJJ
16ccLL
16cc
16ee
16ggJJ
=
8.cccTL
16ggJk
16eeLL
16cc
16ee
16ggJJ
!!linebreak:original
=
8.cccTL
16ggJk
16eeLL
16cc
16ee
16ggJJ
=
16ffLL
16ee
16ff
16eeJJ
16ffLL
16dd
16b
16ddJJ
=
2cc
=||
8.ddTL
16bJk
16ddLL
16b
16dd
16ffJJ
=
8.eetL
16ccJk
16eeLL
16cc
16ee
16ggJJ
=
16ffLL
16ee
16ff
16eeJJ
16ffLL
16dd
16ff
16aaJJ
!!linebreak:original
=
16ggLL
16ff
16ee
16ddJJ
4cc
=
8.ddTL
16bJk
16ddLL
16b
16dd
16ffJJ
=
8.eetL
16ccJk
16eeLL
16cc
16ee
16ggJJ
=
16ffLL
16ee
16ff
16eeJJ
16ffLL
16dd
16b
16ddJJ
=
2cc
=||
8.ddTL
16bJk
16ddLL
16b
16dd
16ffJJ
=
8.eetL
16ccJk
16eeLL
16cc
16ee
16ggJJ
!!linebreak:original
=
16ffLL
16ee
16ff
16eeJJ
16ffLL
16dd
16ff
16aaJJ
!!linebreak:original
=
16ggLL
16ff
16ee
16ddJJ
4cc
=
8.ddTL
16bJk
16ddLL
16b
16dd
16ffJJ
=
8.eetL
16ccJk
16eeLL
16cc
16ee
16ggJJ
=
16ffLL
16ee
16ff
16eeJJ
16ffLL
16dd
16b
16ddJJ
=
4cc
16ccLL
16cc
16ee
16ggJJ
==
*-
